src/assets/images/github.svg

<?xml version="1.0" encoding="UTF-8" standalone="no"?>
<svg width="30px" height="30px" viewBox="0 0 30 30" version="1.1" xmlns="http://www.w3.org/2000/svg" xmlns:xlink="http://www.w3.org/1999/xlink">
    <!-- Generator: Sketch 3.8.3 (29802) - http://www.bohemiancoding.com/sketch -->
    <title>github</title>
    <desc>Created with Sketch.</desc>
    <defs>
        <polygon id="path-1" points="9.93377484e-05 28.967449 29.9104967 28.967449 29.9104967 0 9.93377484e-05 0 9.93377484e-05 28.967449"></polygon>
    </defs>
    <g id="Page-1" stroke="none" stroke-width="1" fill="none" fill-rule="evenodd">
        <g id="github">
            <mask id="mask-2" fill="white">
                <use xlink:href="#path-1"></use>
            </mask>
            <g id="Clip-2"></g>
            <path d="M14.9546026,-7.89115646e-05 C6.69665563,-7.89115646e-05 9.93377484e-05,6.64861497 9.93377484e-05,14.8512748 C9.93377484e-05,21.4123769 4.2847351,26.9782068 10.2283113,28.9423156 C10.9761258,29.077649 11.249106,28.6201592 11.249106,28.2265878 C11.249106,27.8738531 11.2359934,26.9391456 11.2288411,25.6998395 C7.06877483,26.5972612 6.19102649,23.7092952 6.19102649,23.7092952 C5.51096026,21.9945469 4.53029801,21.5368599 4.53029801,21.5368599 C3.17254967,20.6163565 4.63301325,20.6341116 4.63301325,20.6341116 C6.13400662,20.7390639 6.9239404,22.1653905 6.9239404,22.1653905 C8.25804636,24.4339007 10.4240066,23.7787374 11.2763245,23.3993701 C11.4122185,22.4398054 11.7986424,21.7844449 12.2259934,21.4139551 C8.90493377,21.0383361 5.41360927,19.7652952 5.41360927,14.0739959 C5.41360927,12.4529551 5.9963245,11.1272408 6.9531457,10.0891592 C6.79917219,9.71334286 6.28599338,8.20337007 7.09956954,6.15896871 C7.09956954,6.15896871 8.35519868,5.75967619 11.2121523,7.68137007 C12.4051987,7.35191429 13.6844702,7.18718639 14.9563907,7.18146531 C16.2269205,7.18718639 17.5053974,7.35191429 18.7004305,7.68137007 C21.5563907,5.75967619 22.8096358,6.15896871 22.8096358,6.15896871 C23.625596,8.20337007 23.1118212,9.71334286 22.9584437,10.0891592 C23.9158609,11.1272408 24.4951987,12.4529551 24.4951987,14.0739959 C24.4951987,19.7794993 20.9985099,21.034785 17.6667219,21.4017238 C18.2037417,21.8609891 18.681755,22.7672884 18.681755,24.152581 C18.681755,26.1379959 18.6638742,27.738717 18.6638742,28.2265878 C18.6638742,28.6235129 18.9326821,29.084751 19.6922185,28.9405401 C25.6302318,26.9728803 29.9104967,21.4106014 29.9104967,14.8512748 C29.9104967,6.64861497 23.2149338,-7.89115646e-05 14.9546026,-7.89115646e-05" id="Fill-1" fill="#191717" mask="url(#mask-2)"></path>
        </g>
    </g>
</svg>

<svg viewBox="0 0 30 30" xmlns="http://www.w3.org/2000/svg" xmlns:xlink="http://www.w3.org/1999/xlink"><defs><path id="a" d="M0 28.967h29.91V0H0v28.967z"/></defs><g fill="none" fill-rule="evenodd"><mask id="b" fill="#fff"><use xlink:href="#a"/></mask><path d="M14.955 0C6.697 0 0 6.649 0 14.85c0 6.561 4.285 12.127 10.228 14.091.748.136 1.021-.322 1.021-.715 0-.353-.013-1.288-.02-2.527-4.16.897-5.038-1.99-5.038-1.99-.68-1.715-1.66-2.173-1.66-2.173-1.358-.92.102-.903.102-.903 1.501.105 2.29 1.531 2.29 1.531 1.335 2.269 3.501 1.614 4.353 1.234.136-.96.523-1.615.95-1.985-3.321-.376-6.812-1.649-6.812-7.34 0-1.621.582-2.947 1.54-3.985-.155-.376-.668-1.886.146-3.93 0 0 1.255-.4 4.112 1.522a14.417 14.417 0 013.744-.5c1.27.006 2.55.17 3.744.5 2.856-1.921 4.11-1.522 4.11-1.522.816 2.044.302 3.554.148 3.93.958 1.038 1.537 2.364 1.537 3.985 0 5.705-3.496 6.96-6.828 7.328.537.459 1.015 1.365 1.015 2.75 0 1.986-.018 3.587-.018 4.075 0 .397.269.858 1.028.714 5.938-1.968 10.218-7.53 10.218-14.09C29.91 6.65 23.215 0 14.955 0" fill="#191717" mask="url(#b)"/></g></svg>
